X:1
T:Love Divine (Holmes), CM
T:Love Divine (Holmes), CM
T:Henry James Ernest Holmes, ca. 1902
T:Public Domain Courtesy of the Cyber Hymnal™
C:Henry James Ernest Holmes, ca. 1902
Z:Public Domain
Z:Courtesy of the Cyber Hymnal™
%%score ( 1 2 ) ( 3 4 )
L:1/8
Q:1/4=108
M:4/4
K:G
V:1 treble 
V:2 treble 
V:3 bass 
V:4 bass 
V:1
 [GB]2 | [Gc]2 [GB]2 [EB]2 [EA]2 | [DG]2 [DF]2 [DG]2 [=Fd]2 | [Ed]2 [Ec]2 E2 [EA]2 | G4 F2 [FA]2 | %5
 G2 [Fc]2 [GB]2 [Fe]2 | [Gd]2 [Dc]2 [DB]2 [=FB]2 | [EB]2 [EA]2 B3 z A | G6 |] %9
V:2
 x2 | x8 | x8 | x4 E2 x2 | D6 x2 | G2 x6 | x8 | x4 F2 F2 x | G6 |] %9
V:3
 [G,D]2 | [G,E]2 [G,D]2 [C,D]2 [C,C]2 | [D,B,]2 [C,A,]2 [B,,G,]2 [B,,G,]2 | %3
 [C,G,]2 [A,,A,]2 [C,A,]2 [^C,A,]2 | B,4 A,2 [D,C]2 | [D,B,]2 [D,A,]2 [D,G,]2 [D,C]2 | %6
 [E,B,]2 [F,A,]2 G,2 [^G,D]2 | [A,D]2 [A,,C]2 [D,D]2 [D,C]2 x | [G,B,]6 |] %9
V:4
 x2 | x8 | x8 | x8 | D,6 x2 | x8 | x4 ^G,2 x2 | x9 | x6 |] %9

